-----BEGIN PGP PUBLIC KEY BLOCK-----
Comment: DCDE 8B23 B991 92C4 13BB  82AB 2618 AE42 B493 A43B
Comment: Vahin Mehra <vahin@vahin.dev>

xsFNBGYOvCwBEAC370JpOzYF2hrgQUgP05qA0OXP0B1UAZcxPmNoX9xtYLNv/A7k
8Dd+qxoQEzVtuWahhg5HwTAjZHtweB9OXOhyPAV0oztGEHk0BU23j+P75et8pvzB
eUqezymy3JrZmuo5jtjX7x5d6hbePrHfJgxGfpRskAH+DJBqrd0XYIH1A6dGwHJf
UJx1dVS1S6HOcfhk5bxQqao7C47KsuEzNVxac92P/veriKrEmT/ONHVkMnIZhySu
lw+D89mhHpPJ//pq0/wPpmSw7LJY9JbQkdj+moeA4Tot1/mmN69PDGRiVSmevnf7
yhDr4mwyDS5SKaGK5BZa3vJPfY4K3cR7MHJgXZyblHiLZRy9byGAYmBVV0vY3mIW
R9axF/c/4LbjhHPxmNIlbesGhSkMLAykreSTU05ZNISaC2R75FRQ8yj6no0UfRPR
R2kHH3qIJOg2ZJWzqRH++t/3IikWRVdbGbQ0c2CM327AntZDk22MXPVfK1zIFdWe
rn5zwRlClZ01TBKU7lph6lsEjeoIzuptdcH//BwknpKwZkPbIEsMNogp7Gemckai
RFDH4V7EYxufXlZu3nsADmpRoDdZwPOsi8/MGW5uu3iFGoNN8VGEynHlGL6PS9Td
xHILQRB/gbNhwucmAvI/4sZWIM78QEb+1b2SzAJyTmvOFnl0o54oUtQjTwARAQAB
zR1WYWhpbiBNZWhyYSA8dmFoaW5AdmFoaW4uZGV2PsLBkgQTAQgAPBYhBNzeiyO5
kZLEE7uCqyYYrkK0k6Q7BQJmDrwsAhsDBQsJCAcCAyICAQYVCgkICwIEFgIDAQIe
BwIXgAAKCRAmGK5CtJOkO8w4D/4gqVJnsPKnKvwQKNAiXU6BrhqusRgKSO/wgz1o
xAYGGo4arFchCFJfKbtXwbcEoHCda4nIQrvem2nxnGUGDyIyatm2OagGaea9PJym
SNJYNIaB4BRRRLKKg7PglL1AzaiRoQy7eANBFpCE/QHXPiZvIr6ktA8aq+eqCCAL
ujtb1/wJLIOQn1bwvASl89YdB0UVd+6OX+HUy09VFKSvIoa9dpLd6/n2uec4g/IZ
MFzxsw/IVXOMy9PmvG0+oA95Xs/DuqQXgPbtHPrlOm35Rn8LfChpfE9ipZPAfCqg
bVc1tMJdd5TXXgeE/BFy+gPVeOMkhoTEtNux6UWg47eJj8BnxgmMbb5NjjoMhegs
HOsYxPYrg8umHE52+8JOIF0MXEz9lxt4uW5q4ZHxgNYsDsrlgAFkq63cgxM67oc1
/KroA8zrjRKZ1QYMVK7FG4zAnykzEpx2i2v70ir/7IWroXznIQdqXcfRyVUYn+4H
Cmk0jMd7EtkcFy9j3qGDc9bhEr6kxt+ijQNkkU9Tx+RejQi0B2bmezbSzNCRdiM9
AMar2cmKJADcUgZJOSotecD1bzM5xfTgyXThBrH8pbJpkizNP7/xLK8JgWaCi5Eq
Pt59HIAolEBtbdIidMeWLZQlTMwo2UMlWc4lwHmR0vMXB5xaah114r7EG4lScTmH
1GniB87BTQRmDrwsARAA0VB5LBHF2hTDfnP0n/EX668yud5bEuuq6pWYMDUkHJQR
xohjTWLDSoz+8Zx9t0mKIORjeeZ+bFMxkipWaXr016ywd3NLiB2YH8wIzv9z3US1
3GqhGN64ObkESrgIb78Vcs5+CWws9/UDxhVsATtEM/i4lQi9cm4gZa/IXEzTiW1z
jVmq41uydpYPQjkcqeP/pvUASrcMG7Sx/rLp5LvssLQM1bFjs+8OO4G3Orfya0nv
GsPXOo/Ehl0m3FE3Dd5mNlZM+MuWOM8y2gQwxRs1d8ONyfGb+0f3BkLykSGFj4wB
5GGZbOLVxzvZTNFFBNyD/iJdbbuAMZ0d9/bGo4PGteAkuN/a+CvYhxx1Dm4u98w3
YAnudO9UjrBjNLfz08Q13+CRtxCfWSwrd4h7UJjjuxh+N0TJt0Oj8SCvehbCJYb0
FlyfQ2fJ5MB8dbBp0tJ/ioFk5oCFXw8NgS4X7c0gPvQ+d9M1xSA0TZ+o7JLs85JB
7ZJkLJPYDDOyDnaZwpUb1bPisNJU+xtSEQsHoRsykyHRd+UXBza1jYFGAlbU2Nwz
xGCTVlyUhck0+eBrM+/eVUi+gI6jqdASuvWxaNehlxmf38K92X9BGYava+pIXKs7
amIgaBh06PUjjX+bg5C0Q/ocaKzI91CyKzdUUHCgWUxOjdgLWUs5zl55DHLNqhUA
EQEAAcLBdgQYAQgAIBYhBNzeiyO5kZLEE7uCqyYYrkK0k6Q7BQJmDrwsAhsMAAoJ
ECYYrkK0k6Q7wQYQAJkQE+DbC11TIfKkm2/qqnKlWXwOLv5yJ+48tyN6/v7FxrPi
qFK/mmDtLDHDA0sBZd3AHWvA2iuVA3vFNCwzd8gm45lBDryEaGSzYJH2dzeDOGvi
Tq9wTiu4kWKNNzubvj8/xtugnFsU0WGt/e292Rkt9tSVhcRnAfivVtLObKV8LnA7
XCS4Mhygbp2t96IpVsNeAisly564kkWXq7TqHqHjliAaB2uV+mjJTrTtmLJ0yB2G
1syO4MFZitfX6APKq0GjhcNZuC1JqOrjSYIRmhplKDcu9PbIrCSgNVy3HNSsCS/Q
hSvHuMoJci7vAr76EcJGgCjtEQf0/R1u0wFAX4MOMG8VfJZh7UeCq+KO3kCdgqHd
H2GN8RsJtV4v/2Wrac41MiTYakYfNn1L6XIYR+R3cK8SJGa0E6zbJEQSPv+UCZpV
5fuNZ7mYgc/dA4IspV+C9zPOid8uHl7I69+Rk9uxsY0MN4QyOW8JNjSvUxTfGIIU
IlG8KRweqs1SaiBGzURNI4GiDWGYjcPW5FThqm1I85aMFIecnU5piVfnmH5bVzk2
jj1BcJduLX75iiNB8Q2s0sKWDqifox5D8Ti9hf0T77KF1u26cAtkzQU7Lu9fU90k
DfSo9ZXrLFvaoc0aIMch0lKiH3Xx1bog1Y9BqcMdy5SIJQMD3R4KZ1g76TwU
=TEHK
-----END PGP PUBLIC KEY BLOCK-----
